_site/images/icons/circle-file.svg

<svg height="50" viewBox="0 0 50 50" width="50" xmlns="http://www.w3.org/2000/svg"><g fill="none" fill-rule="evenodd"><circle cx="25" cy="25" fill="#fff" r="25"/><g fill="#0b7a76"><circle cx="25" cy="25" fill-opacity=".3" r="25"/><path d="m17.71 14.71-2.42-2.42c-.1877666-.1893127-.4433625-.2957983-.71-.2957983s-.5222334.1064856-.71.2957983l-3.58 3.58c-.1871865.1887188-.29153676.444197-.29.71v2.42c0 .5522847.4477153 1 1 1h2.42c.265803.0015368.5212812-.1028135.71-.29l3.58-3.58c.1893127-.1877666.2957983-.4433625.2957983-.71s-.1064856-.5222334-.2957983-.71zm-4.71 3.29h-1v-1l2.58-2.58 1 1zm-6 0h-4c-.55228475 0-1-.4477153-1-1v-14c0-.55228475.44771525-1 1-1h5v3c0 1.65685425 1.34314575 3 3 3h3v1c0 .55228475.4477153 1 1 1s1-.44771525 1-1v-2s0 0 0-.06c-.0104163-.0918651-.0305284-.18236942-.06-.27v-.09c-.0480811-.10282025-.1122162-.19733517-.19-.28l-6-6c-.08266483-.07778379-.17717975-.14191892-.28-.19-.0298502-.00423982-.0601498-.00423982-.09 0l-.32-.11h-6.06c-1.65685425 0-3 1.34314575-3 3v14c0 1.6568542 1.34314575 3 3 3h4c.55228475 0 1-.4477153 1-1s-.44771525-1-1-1zm3-14.59 2.59 2.59h-1.59c-.5522847 0-1-.44771525-1-1zm-5 8.59h6c.5522847 0 1-.4477153 1-1s-.4477153-1-1-1h-6c-.55228475 0-1 .4477153-1 1s.44771525 1 1 1zm0-4h1c.55228475 0 1-.44771525 1-1s-.44771525-1-1-1h-1c-.55228475 0-1 .44771525-1 1s.44771525 1 1 1zm2 6h-2c-.55228475 0-1 .4477153-1 1s.44771525 1 1 1h2c.55228475 0 1-.4477153 1-1s-.44771525-1-1-1z" fill-rule="nonzero" transform="translate(16 15)"/></g></g></svg>

<?xml version="1.0" encoding="UTF-8"?>
<svg width="50px" height="50px" viewBox="0 0 50 50" version="1.1" xmlns="http://www.w3.org/2000/svg" xmlns:xlink="http://www.w3.org/1999/xlink">
    <!-- Generator: Sketch 52.6 (67491) - http://www.bohemiancoding.com/sketch -->
    <title>Icon Circle</title>
    <desc>Created with Sketch.</desc>
    <g id="Landing-page" stroke="none" stroke-width="1" fill="none" fill-rule="evenodd">
        <g id="1.1--Home" transform="translate(-716.000000, -4143.000000)">
            <g id="photos" transform="translate(0.000000, 3830.000000)">
                <g id="Group" transform="translate(700.000000, 211.000000)">
                    <g id="pending-change" transform="translate(0.000000, 70.000000)">
                        <g id="Icon-Circle" transform="translate(16.000000, 32.000000)">
                            <g id="Base">
                                <circle id="Oval" fill="#FFFFFF" cx="25" cy="25" r="25"></circle>
                                <circle id="Oval" fill-opacity="0.3" fill="#0B7A76" cx="25" cy="25" r="25"></circle>
                            </g>
                            <g id="file-edit-alt" transform="translate(16.000000, 15.000000)" fill="#0B7A76" fill-rule="nonzero">
                                <path d="M17.71,14.71 L15.29,12.29 C15.1022334,12.1006873 14.8466375,11.9942017 14.58,11.9942017 C14.3133625,11.9942017 14.0577666,12.1006873 13.87,12.29 L10.29,15.87 C10.1028135,16.0587188 9.99846324,16.314197 10,16.58 L10,19 C10,19.5522847 10.4477153,20 11,20 L13.42,20 C13.685803,20.0015368 13.9412812,19.8971865 14.13,19.71 L17.71,16.13 C17.8993127,15.9422334 18.0057983,15.6866375 18.0057983,15.42 C18.0057983,15.1533625 17.8993127,14.8977666 17.71,14.71 Z M13,18 L12,18 L12,17 L14.58,14.42 L15.58,15.42 L13,18 Z M7,18 L3,18 C2.44771525,18 2,17.5522847 2,17 L2,3 C2,2.44771525 2.44771525,2 3,2 L8,2 L8,5 C8,6.65685425 9.34314575,8 11,8 L14,8 L14,9 C14,9.55228475 14.4477153,10 15,10 C15.5522847,10 16,9.55228475 16,9 L16,7 C16,7 16,7 16,6.94 C15.9895837,6.8481349 15.9694716,6.75763058 15.94,6.67 L15.94,6.58 C15.8919189,6.47717975 15.8277838,6.38266483 15.75,6.3 L9.75,0.3 C9.66733517,0.222216205 9.57282025,0.158081081 9.47,0.11 C9.4401498,0.105760184 9.4098502,0.105760184 9.38,0.11 L9.06,0 L3,0 C1.34314575,-4.4408921e-16 0,1.34314575 0,3 L0,17 C0,18.6568542 1.34314575,20 3,20 L7,20 C7.55228475,20 8,19.5522847 8,19 C8,18.4477153 7.55228475,18 7,18 Z M10,3.41 L12.59,6 L11,6 C10.4477153,6 10,5.55228475 10,5 L10,3.41 Z M5,12 L11,12 C11.5522847,12 12,11.5522847 12,11 C12,10.4477153 11.5522847,10 11,10 L5,10 C4.44771525,10 4,10.4477153 4,11 C4,11.5522847 4.44771525,12 5,12 Z M5,8 L6,8 C6.55228475,8 7,7.55228475 7,7 C7,6.44771525 6.55228475,6 6,6 L5,6 C4.44771525,6 4,6.44771525 4,7 C4,7.55228475 4.44771525,8 5,8 Z M7,14 L5,14 C4.44771525,14 4,14.4477153 4,15 C4,15.5522847 4.44771525,16 5,16 L7,16 C7.55228475,16 8,15.5522847 8,15 C8,14.4477153 7.55228475,14 7,14 Z" id="Shape"></path>
                            </g>
                        </g>
                    </g>
                </g>
            </g>
        </g>
    </g>
</svg>
